;FLAVOR:Marlin
;TIME:2468
;Filament used: 1.80793m
;Layer height: 0.15
;MINX:105.465
;MINY:74.073
;MINZ:0.2
;MAXX:144.535
;MAXY:123.143
;MAXZ:7.25
;Generated with Cura_SteamEngine 5.0.0
M82 ;absolute extrusion mode
G21 ; set units to millimeters
G90 ; use absolute positioning
M82 ; absolute extrusion mode
M104 S200 ; set extruder temp
M140 S60 ; set bed temp
M190 S60 ; wait for bed temp
M109 S200 ; wait for extruder temp
G28 W ; home all without mesh bed level
G80 ; mesh bed leveling
G92 E0.0 ; reset extruder distance position
G1 Y-3.0 F1000.0 ; go outside print area
G1 X60.0 E9.0 F1000.0 ; intro line
G1 X100.0 E21.5 F1000.0 ; intro line
G92 E0.0 ; reset extruder distance position
G92 E0
G92 E0
G1 F2100 E-0.8
;LAYER_COUNT:48
;LAYER:0
M107
G0 F3600 X106.622 Y76.921 Z0.2
G0 X105.468 Y81.181
;TYPE:SKIRT
G1 F2100 E0
G1 F1800 X105.482 Y80.426 E0.02512
G1 X105.568 Y79.551 E0.05436
G1 X105.755 Y78.76 E0.08139
G1 X106.162 Y77.712 E0.11879
G1 X106.622 Y76.921 E0.14922
G1 X107.001 Y76.421 E0.17009
G1 X107.608 Y75.795 E0.19909
G1 X108.01 Y75.451 E0.21669
G1 X108.628 Y75.031 E0.24154
G1 X109.457 Y74.608 E0.27249
G1 X109.97 Y74.418 E0.29069
G1 X110.676 Y74.222 E0.31506
G1 X111.34 Y74.124 E0.33738
G1 X111.923 Y74.09 E0.35681
G1 X112.894 Y74.073 E0.38911
G1 X137.474 Y74.077 E1.20664
G1 X138.102 Y74.086 E1.22753
G1 X138.736 Y74.13 E1.24867
G1 X139.606 Y74.292 E1.2781
G1 X140.469 Y74.58 E1.30836
G1 X141.216 Y74.943 E1.33598
G1 X142.02 Y75.472 E1.368
G1 X142.496 Y75.887 E1.389
G1 X142.947 Y76.37 E1.41098
G1 X143.538 Y77.163 E1.44387
G1 X143.889 Y77.803 E1.46815
G1 X144.16 Y78.473 E1.49219
G1 X144.378 Y79.245 E1.51887
G1 X144.487 Y79.975 E1.54342
G1 X144.52 Y80.61 E1.56457
G1 X144.535 Y81.488 E1.59377
G1 X144.531 Y116.077 E2.74421
G1 X144.522 Y116.75 E2.76659
G1 X144.485 Y117.301 E2.78496
G1 X144.395 Y117.895 E2.80494
G1 X144.183 Y118.682 E2.83205
G1 X144.003 Y119.158 E2.84898
G1 X143.68 Y119.802 E2.87294
G1 X143.102 Y120.664 E2.90746
G1 X142.526 Y121.303 E2.93607
G1 X141.942 Y121.806 E2.96171
G1 X141.369 Y122.188 E2.98461
G1 X140.577 Y122.6 E3.01431
G1 X139.921 Y122.836 E3.0375
G1 X139.428 Y122.966 E3.05445
G1 X138.812 Y123.072 E3.07524
G1 X138.301 Y123.115 E3.0923
G1 X137.172 Y123.143 E3.12986
G1 X112.543 Y123.139 E3.94902
G1 X111.692 Y123.12 E3.97734
G1 X110.989 Y123.051 E4.00083
G1 X110.492 Y122.953 E4.01768
G1 X109.623 Y122.683 E4.04794
G1 X109.012 Y122.4 E4.07034
G1 X108.252 Y121.945 E4.0998
G1 X107.793 Y121.592 E4.11906
G1 X107.382 Y121.209 E4.13775
G1 X106.844 Y120.6 E4.16477
G1 X106.423 Y119.992 E4.18937
G1 X106.124 Y119.432 E4.21048
G1 X105.841 Y118.731 E4.23563
G1 X105.613 Y117.925 E4.26349
G1 X105.504 Y117.207 E4.28764
G1 X105.465 Y115.87 E4.33213
G1 X105.468 Y81.181 E5.48589
G0 F3600 X105.868 Y81.187
G1 F1800 X105.882 Y80.448 E5.51047
G1 X105.96 Y79.631 E5.53777
G1 X106.135 Y78.885 E5.56326
G1 X106.513 Y77.904 E5.59822
G1 X106.948 Y77.152 E5.62712
G1 X107.301 Y76.686 E5.64656
G1 X107.89 Y76.079 E5.67469
G1 X108.489 Y75.595 E5.70031
G1 X109.195 Y75.172 E5.72768
G1 X109.885 Y74.871 E5.75272
G1 X110.397 Y74.704 E5.77063
G1 X110.977 Y74.572 E5.79042
G1 X111.778 Y74.496 E5.81718
G1 X112.894 Y74.473 E5.8543
G1 X137.468 Y74.477 E6.67164
G1 X138.096 Y74.486 E6.69253
G1 X138.704 Y74.528 E6.7128
G1 X139.491 Y74.675 E6.73943
G1 X140.307 Y74.946 E6.76802
G1 X141.009 Y75.285 E6.79395
G1 X141.767 Y75.781 E6.82408
G1 X142.212 Y76.168 E6.8437
G1 X142.635 Y76.62 E6.86429
G1 X143.194 Y77.367 E6.89532
G1 X143.523 Y77.965 E6.91802
G1 X143.778 Y78.592 E6.94053
G1 X143.986 Y79.321 E6.96575
G1 X144.088 Y79.998 E6.98852
G1 X144.121 Y80.617 E7.00913
G1 X144.135 Y81.488 E7.03811
G1 X144.131 Y116.072 E8.18838
G1 X144.122 Y116.745 E8.21076
G1 X144.086 Y117.268 E8.2282
G1 X144.001 Y117.824 E8.24691
G1 X143.799 Y118.567 E8.27252
G1 X143.507 Y119.276 E8.29802
G1 X143.102 Y119.984 E8.32515
G1 X142.798 Y120.404 E8.34239
G1 X142.253 Y121.01 E8.3695
G1 X141.709 Y121.48 E8.39341
G1 X141.174 Y121.838 E8.41482
G1 X140.426 Y122.23 E8.44291
G1 X139.819 Y122.449 E8.46437
G1 X139.326 Y122.579 E8.48133
G1 X138.778 Y122.674 E8.49983
G1 X138.267 Y122.717 E8.51688
G1 X137.164 Y122.743 E8.55358
G1 X112.552 Y122.739 E9.37218
G1 X111.701 Y122.72 E9.40049
G1 X111.039 Y122.654 E9.42262
G1 X110.182 Y122.454 E9.45189
G1 X109.535 Y122.211 E9.47487
G1 X108.79 Y121.815 E9.50294
G1 X108.306 Y121.491 E9.52231
G1 X107.874 Y121.129 E9.54105
G1 X107.423 Y120.671 E9.56243
G1 X106.955 Y120.075 E9.58764
G1 X106.655 Y119.595 E9.60646
G1 X106.348 Y118.945 E9.63037
G1 X106.093 Y118.195 E9.65672
G1 X105.968 Y117.652 E9.67525
G1 X105.879 Y116.83 E9.70275
G1 X105.865 Y115.818 E9.73641
G1 X105.868 Y81.187 E10.88825
G1 F2100 E10.08825
;MESH:case.stl
G0 F3600 X108.402 Y81.189
G0 X109.497 Y81.189
G0 X109.675 Y116.6
G1 F2100 E10.88825
G0 F3600 X109.266 Y116.599
;TYPE:WALL-OUTER
G1 F1800 X109.312 Y117.09 E10.90465
G1 X109.494 Y117.699 E10.92579
G1 X109.727 Y118.123 E10.94188
G1 X110.082 Y118.555 E10.96048
G1 X110.518 Y118.903 E10.97903
G1 X111.102 Y119.193 E11.00072
G1 X111.597 Y119.302 E11.01758
G1 X112.141 Y119.34 E11.03572
G1 X137.991 Y119.344 E11.89549
G1 X138.482 Y119.297 E11.9119
G1 X139.022 Y119.14 E11.9306
G1 X139.42 Y118.945 E11.94534
G1 X139.919 Y118.553 E11.96645
G1 X140.232 Y118.187 E11.98246
G1 X140.508 Y117.695 E12.00123
G1 X140.658 Y117.167 E12.01948
G1 X140.731 Y116.487 E12.04223
G1 X140.734 Y80.619 E13.2352
G1 X140.658 Y79.978 E13.25667
G1 X140.507 Y79.523 E13.27262
G1 X140.232 Y79.033 E13.29131
G1 X139.863 Y78.609 E13.31
G1 X139.42 Y78.288 E13.3282
G1 X138.921 Y78.043 E13.34669
G1 X138.433 Y77.928 E13.36336
G1 X137.888 Y77.877 E13.38157
G1 X111.971 Y77.874 E14.24357
G1 X111.456 Y77.952 E14.2609
G1 X111.154 Y78.011 E14.27113
G1 X110.578 Y78.273 E14.29218
G1 X110.053 Y78.693 E14.31454
G1 X109.705 Y79.128 E14.33307
G1 X109.443 Y79.643 E14.35228
G1 X109.301 Y80.257 E14.37325
G1 X109.269 Y80.739 E14.38931
G1 X109.266 Y116.599 E15.58202
G0 F3600 X109.284 Y116.798
G0 X109.666 Y116.58
;TYPE:WALL-INNER
G1 F1800 X109.706 Y117.013 E15.59648
G1 X109.865 Y117.543 E15.61489
G1 X110.179 Y118.043 E15.63453
G1 X110.364 Y118.269 E15.64424
G1 X110.734 Y118.563 E15.65996
G1 X111.245 Y118.817 E15.67894
G1 X111.775 Y118.919 E15.69689
G1 X112.141 Y118.94 E15.70908
G1 X137.972 Y118.944 E16.56822
G1 X138.407 Y118.902 E16.58276
G1 X139.025 Y118.693 E16.60446
G1 X139.445 Y118.417 E16.62117
G1 X139.773 Y118.108 E16.63616
G1 X140.07 Y117.656 E16.65415
G1 X140.239 Y117.252 E16.66872
G1 X140.331 Y116.681 E16.68795
G1 X140.334 Y80.643 E17.88658
G1 X140.266 Y80.066 E17.9059
G1 X140.044 Y79.515 E17.92566
G1 X139.903 Y79.265 E17.93521
G1 X139.47 Y78.804 E17.95624
G1 X138.924 Y78.469 E17.97755
G1 X138.468 Y78.339 E17.99332
G1 X137.888 Y78.277 E18.01272
G1 X111.985 Y78.274 E18.87426
G1 X111.277 Y78.395 E18.89815
G1 X110.789 Y78.617 E18.91598
G1 X110.337 Y78.978 E18.93522
G1 X110.043 Y79.346 E18.95089
G1 X109.817 Y79.791 E18.96749
G1 X109.699 Y80.302 E18.98493
G1 X109.669 Y80.739 E18.9995
G1 X109.666 Y116.58 E20.19158
G0 F3600 X109.675 Y116.58
G0 X110.048 Y80.593
;TYPE:SKIN
G1 F1800 X110.046 Y116.459 E21.38448
G1 X110.051 Y116.556 E21.38771
G1 X110.146 Y117.148 E21.40766
G1 X110.304 Y117.549 E21.42199
G1 X110.635 Y117.997 E21.44052
G1 X110.938 Y118.239 E21.45342
G1 X111.499 Y118.488 E21.47383
G1 X112.137 Y118.56 E21.49518
G1 X137.848 Y118.563 E22.35034
G1 X138.331 Y118.527 E22.36644
G1 X138.854 Y118.35 E22.38481
G1 X139.375 Y117.984 E22.40599
G1 X139.666 Y117.595 E22.42214
G1 X139.869 Y117.149 E22.43844
G1 X139.951 Y116.648 E22.45533
G1 X139.953 Y80.798 E23.6477
G1 X139.89 Y80.255 E23.66588
G1 X139.838 Y79.99 E23.67487
G1 X139.585 Y79.479 E23.69383
G1 X139.324 Y79.18 E23.70703
G1 X138.79 Y78.85 E23.72791
G1 X138.529 Y78.735 E23.7374
G1 X137.882 Y78.657 E23.75907
G1 X125 Y78.658 E24.18753
G1 X111.912 Y78.658 E24.62284
G1 X111.393 Y78.761 E24.64044
G1 X110.989 Y78.944 E24.65519
G1 X110.607 Y79.251 E24.67149
G1 X110.367 Y79.551 E24.68427
G1 X110.134 Y80.076 E24.70337
G1 X110.048 Y80.593 E24.7208
G0 F3600 X138.298 Y78.901
G1 F1800 X139.685 Y80.288 E24.78604
G0 F3600 X139.752 Y80.921
G1 F1800 X137.689 Y78.857 E24.8831
G0 F3600 X137.123 Y78.857
G1 F1800 X139.752 Y81.486 E25.00676
G0 F3600 X139.752 Y82.052
G1 F1800 X136.557 Y78.857 E25.15705
G0 F3600 X135.992 Y78.857
G1 F1800 X139.752 Y82.618 E25.33393
G0 F3600 X139.752 Y83.184
G1 F1800 X135.426 Y78.857 E25.53743
G0 F3600 X134.86 Y78.857
G1 F1800 X139.752 Y83.749 E25.76754
G0 F3600 X139.752 Y84.315
G1 F1800 X134.295 Y78.857 E26.02424
G0 F3600 X133.729 Y78.857
G1 F1800 X139.752 Y84.881 E26.30757
G0 F3600 X139.752 Y85.446
G1 F1800 X133.163 Y78.857 E26.6175
G0 F3600 X132.598 Y78.857
G1 F1800 X139.752 Y86.012 E26.95402
G0 F3600 X139.752 Y86.578
G1 F1800 X132.032 Y78.857 E27.31717
G0 F3600 X131.466 Y78.857
G1 F1800 X139.752 Y87.143 E27.70692
G0 F3600 X139.752 Y87.709
G1 F1800 X130.901 Y78.857 E28.12327
G0 F3600 X130.335 Y78.857
G1 F1800 X139.752 Y88.275 E28.56624
G0 F3600 X139.752 Y88.84
G1 F1800 X129.769 Y78.857 E29.03581
G0 F3600 X129.203 Y78.857
G1 F1800 X139.752 Y89.406 E29.532
G0 F3600 X139.752 Y89.972
G1 F1800 X128.638 Y78.857 E30.05479
G0 F3600 X128.072 Y78.857
G1 F1800 X139.752 Y90.537 E30.60418
G0 F3600 X139.752 Y91.103
G1 F1800 X127.506 Y78.857 E31.1802
G0 F3600 X126.941 Y78.857
G1 F1800 X139.752 Y91.669 E31.78281
G0 F3600 X139.752 Y92.235
G1 F1800 X126.375 Y78.857 E32.41205
G0 F3600 X125.809 Y78.857
G1 F1800 X139.751 Y92.799 E33.06783
G0 F3600 X139.751 Y93.365
G1 F1800 X125.244 Y78.857 E33.75022
G0 F3600 X124.678 Y78.857
G1 F1800 X139.751 Y93.931 E34.45923
G0 F3600 X139.751 Y94.497
G1 F1800 X124.112 Y78.857 E35.19487
G0 F3600 X123.547 Y78.857
G1 F1800 X139.751 Y95.062 E35.95708
G0 F3600 X139.751 Y95.628
G1 F1800 X122.981 Y78.857 E36.74591
G0 F3600 X122.415 Y78.857
G1 F1800 X139.751 Y96.194 E37.56137
G0 F3600 X139.751 Y96.759
G1 F1800 X121.85 Y78.857 E38.4034
G0 F3600 X121.284 Y78.857
G1 F1800 X139.751 Y97.325 E39.27205
G0 F3600 X139.751 Y97.891
G1 F1800 X120.718 Y78.857 E40.16733
G0 F3600 X120.152 Y78.857
G1 F1800 X139.751 Y98.456 E41.08921
G0 F3600 X139.751 Y99.022
G1 F1800 X119.587 Y78.857 E42.03768
G0 F3600 X119.021 Y78.857
G1 F1800 X139.751 Y99.588 E43.01278
G0 F3600 X139.751 Y100.153
G1 F1800 X118.455 Y78.857 E44.01448
G0 F3600 X117.89 Y78.857
G1 F1800 X139.751 Y100.719 E45.04278
G0 F3600 X139.751 Y101.285
G1 F1800 X117.324 Y78.857 E46.0977
G0 F3600 X116.758 Y78.857
G1 F1800 X139.751 Y101.85 E47.17922
G0 F3600 X139.751 Y102.416
G1 F1800 X116.193 Y78.857 E48.28734
G0 F3600 X115.627 Y78.857
G1 F1800 X139.751 Y102.982 E49.42208
G0 F3600 X139.751 Y103.548
G1 F1800 X115.061 Y78.857 E50.58345
G0 F3600 X114.496 Y78.857
G1 F1800 X139.751 Y104.113 E51.77139
G0 F3600 X139.751 Y104.679
G1 F1800 X113.93 Y78.857 E52.98595
G0 F3600 X113.364 Y78.857
G1 F1800 X139.751 Y105.244 E54.22712
G0 F3600 X139.751 Y105.81
G1 F1800 X112.799 Y78.857 E55.49488
G0 F3600 X112.233 Y78.857
G1 F1800 X139.751 Y106.375 E56.78924
G0 F3600 X139.751 Y106.941
G1 F1800 X111.711 Y78.901 E58.10816
G0 F3600 X111.277 Y79.033
G1 F1800 X139.751 Y107.507 E59.44749
G0 F3600 X139.751 Y108.072
G1 F1800 X110.928 Y79.249 E60.80323
G0 F3600 X110.648 Y79.536
G1 F1800 X139.751 Y108.638 E62.17213
G0 F3600 X139.751 Y109.204
G1 F1800 X110.435 Y79.888 E63.55106
G0 F3600 X110.295 Y80.314
G1 F1800 X139.751 Y109.769 E64.93656
G0 F3600 X139.751 Y110.335
G1 F1800 X110.247 Y80.831 E66.32433
G0 F3600 X110.247 Y81.397
G1 F1800 X139.751 Y110.901 E67.71211
G0 F3600 X139.751 Y111.466
G1 F1800 X110.247 Y81.962 E69.09989
G0 F3600 X110.247 Y82.528
G1 F1800 X139.751 Y112.032 E70.48767
G0 F3600 X139.751 Y112.598
G1 F1800 X110.247 Y83.094 E71.87545
G0 F3600 X110.247 Y83.659
G1 F1800 X139.751 Y113.163 E73.26322
G0 F3600 X139.751 Y113.729
G1 F1800 X110.247 Y84.225 E74.651
G0 F3600 X110.247 Y84.791
G1 F1800 X139.751 Y114.295 E76.03878
G0 F3600 X139.751 Y114.861
G1 F1800 X110.247 Y85.356 E77.42658
G0 F3600 X110.247 Y85.922
G1 F1800 X139.751 Y115.426 E78.81436
G0 F3600 X139.751 Y115.992
G1 F1800 X110.247 Y86.488 E80.20214
G0 F3600 X110.247 Y87.054
G1 F1800 X139.751 Y116.558 E81.58991
G0 F3600 X139.681 Y117.053
G1 F1800 X110.247 Y87.619 E82.9744
G0 F3600 X110.247 Y88.185
G1 F1800 X139.511 Y117.449 E84.35089
G0 F3600 X139.277 Y117.781
G1 F1800 X110.247 Y88.751 E85.71637
G0 F3600 X110.247 Y89.316
G1 F1800 X138.96 Y118.03 E87.06696
G0 F3600 X138.591 Y118.226
G1 F1800 X110.247 Y89.882 E88.40018
G0 F3600 X110.247 Y90.448
G1 F1800 X138.136 Y118.337 E89.71199
G0 F3600 X137.594 Y118.361
G1 F1800 X110.247 Y91.013 E90.99833
G0 F3600 X110.247 Y91.579
G1 F1800 X137.028 Y118.361 E92.25805
G0 F3600 X136.463 Y118.361
G1 F1800 X110.247 Y92.145 E93.49117
G0 F3600 X110.247 Y92.71
G1 F1800 X135.897 Y118.361 E94.6977
G0 F3600 X135.331 Y118.361
G1 F1800 X110.247 Y93.276 E95.87759
G0 F3600 X110.247 Y93.842
G1 F1800 X134.766 Y118.361 E97.03089
G0 F3600 X134.2 Y118.361
G1 F1800 X110.247 Y94.407 E98.15759
G0 F3600 X110.247 Y94.973
G1 F1800 X133.634 Y118.361 E99.25767
G0 F3600 X133.069 Y118.361
G1 F1800 X110.247 Y95.539 E100.33114
G0 F3600 X110.247 Y96.105
G1 F1800 X132.503 Y118.361 E101.378
G0 F3600 X131.937 Y118.361
G1 F1800 X110.247 Y96.67 E102.39825
G0 F3600 X110.247 Y97.236
G1 F1800 X131.371 Y118.361 E103.39188
G0 F3600 X130.805 Y118.36
G1 F1800 X110.247 Y97.802 E104.35887
G0 F3600 X110.247 Y98.367
G1 F1800 X130.239 Y118.36 E105.29926
G0 F3600 X129.674 Y118.36
G1 F1800 X110.247 Y98.933 E106.21304
G0 F3600 X110.247 Y99.499
G1 F1800 X129.108 Y118.36 E107.10021
G0 F3600 X128.542 Y118.36
G1 F1800 X110.247 Y100.064 E107.96077
G0 F3600 X110.247 Y100.63
G1 F1800 X127.977 Y118.36 E108.79473
G0 F3600 X127.411 Y118.36
G1 F1800 X110.247 Y101.196 E109.60208
G0 F3600 X110.247 Y101.761
G1 F1800 X126.845 Y118.36 E110.38282
G0 F3600 X126.28 Y118.36
G1 F1800 X110.247 Y102.327 E111.13696
G0 F3600 X110.247 Y102.893
G1 F1800 X125.714 Y118.36 E111.86448
G0 F3600 X125.148 Y118.36
G1 F1800 X110.247 Y103.458 E112.5654
G0 F3600 X110.247 Y104.024
G1 F1800 X124.582 Y118.359 E113.23968
G0 F3600 X124.016 Y118.359
G1 F1800 X110.247 Y104.59 E113.88733
G0 F3600 X110.247 Y105.155
G1 F1800 X123.45 Y118.359 E114.50838
G0 F3600 X122.885 Y118.359
G1 F1800 X110.247 Y105.721 E115.10283
G0 F3600 X110.247 Y106.287
G1 F1800 X122.319 Y118.359 E115.67066
G0 F3600 X121.753 Y118.359
G1 F1800 X110.247 Y106.853 E116.21187
G0 F3600 X110.247 Y107.418
G1 F1800 X121.188 Y118.359 E116.7265
G0 F3600 X120.622 Y118.359
G1 F1800 X110.247 Y107.984 E117.21451
G0 F3600 X110.247 Y108.55
G1 F1800 X120.056 Y118.359 E117.6759
G0 F3600 X119.491 Y118.359
G1 F1800 X110.247 Y109.115 E118.11071
G0 F3600 X110.247 Y109.681
G1 F1800 X118.925 Y118.359 E118.51889
G0 F3600 X118.359 Y118.359
G1 F1800 X110.247 Y110.247 E118.90046
G0 F3600 X110.247 Y110.812
G1 F1800 X117.793 Y118.359 E119.25542
G0 F3600 X117.227 Y118.359
G1 F1800 X110.247 Y111.378 E119.58376
G0 F3600 X110.247 Y111.944
G1 F1800 X116.662 Y118.359 E119.8855
G0 F3600 X116.096 Y118.359
G1 F1800 X110.247 Y112.509 E120.16065
G0 F3600 X110.247 Y113.075
G1 F1800 X115.53 Y118.359 E120.40917
G0 F3600 X114.964 Y118.359
G1 F1800 X110.247 Y113.641 E120.63106
G0 F3600 X110.247 Y114.206
G1 F1800 X114.399 Y118.359 E120.82638
G0 F3600 X113.833 Y118.359
G1 F1800 X110.247 Y114.772 E120.99508
G0 F3600 X110.247 Y115.338
G1 F1800 X113.267 Y118.359 E121.13716
G0 F3600 X112.702 Y118.359
G1 F1800 X110.247 Y115.903 E121.25266
G0 F3600 X110.255 Y116.478
G1 F1800 X112.136 Y118.359 E121.34113
G0 F3600 X111.465 Y118.253
G1 F1800 X110.388 Y117.176 E121.39179
M104 S200
G1 X110.318 Y117.106
;MESH:NONMESH
G0 F600 X110.318 Y117.106 Z0.35
G0 F3600 X109.677 Y80.62
G0 X108.897 Y80.619
;TIME_ELAPSED:134.858459
;LAYER:1
M106 S255
;TYPE:WALL-OUTER
;MESH:case.stl
G1 F2100 X108.897 Y80.787 E121.39598
G1 X108.897 Y116.602 E122.28939
G1 X108.926 Y117.027 E122.30002
G1 X109.08 Y117.653 E122.3161
G1 X109.348 Y118.219 E122.33172
G1 X109.731 Y118.724 E122.34753
G1 X110.21 Y119.142 E122.36339
G1 X110.758 Y119.452 E122.37909
G1 X111.37 Y119.646 E122.39511
G1 X112.045 Y119.706 E122.41201
G1 X137.988 Y119.712 E123.05916
G1 X138.629 Y119.646 E123.07524
G1 X139.234 Y119.453 E123.09108
